dist/img/logo.svg

<svg width="61" height="41" viewBox="0 0 61 41" fill="none" xmlns="http://www.w3.org/2000/svg">
<path fill-rule="evenodd" clip-rule="evenodd" d="M31.5601 0.693637C31.5566 0.307054 31.2404 -0.00348479 30.8538 2.95639e-05C30.4672 0.00354397 30.1567 0.319781 30.1602 0.706364L30.2106 6.25196C29.2974 6.29801 28.4002 6.39247 27.522 6.52866C27.1782 6.582 26.8373 6.64171 26.4996 6.70739L25.0711 1.73233C24.9644 1.36074 24.5767 1.146 24.2051 1.2527C23.8336 1.35939 23.6188 1.74711 23.7255 2.1187L25.1299 7.00995C23.6271 7.38163 22.1965 7.86634 20.8563 8.42463L18.1136 4.63466C17.8869 4.32147 17.4493 4.25131 17.1361 4.47797C16.8229 4.70462 16.7527 5.14224 16.9794 5.45543L19.5483 9.00526C18.1183 9.67985 16.8088 10.4301 15.6452 11.2008L13.1798 8.88039C12.8982 8.61543 12.4552 8.62886 12.1903 8.91038C11.9253 9.1919 11.9387 9.63491 12.2202 9.89987L14.4722 12.0194C13.6917 12.5935 12.9955 13.1681 12.3936 13.7211C12.1089 13.9827 12.0902 14.4255 12.3517 14.7102C12.6133 14.9948 13.0561 15.0136 13.3408 14.752C16.2284 12.0991 21.467 8.88448 27.7366 7.91213C33.9733 6.94487 41.2568 8.18929 48.3324 14.4811C48.6213 14.738 49.0638 14.7121 49.3207 14.4232C49.5776 14.1343 49.5517 13.6918 49.2628 13.4349C48.5294 12.7829 47.7932 12.1821 47.0553 11.63L49.267 9.63093C49.5538 9.3717 49.5761 8.92905 49.3169 8.64224C49.0577 8.35543 48.615 8.33307 48.3282 8.5923L45.8883 10.7976C44.688 9.98294 43.4853 9.29245 42.286 8.71427L44.6946 5.21945C44.914 4.90113 44.8338 4.46523 44.5154 4.24585C44.1971 4.02646 43.7612 4.10667 43.5418 4.42499L40.9877 8.13099C39.5065 7.51357 38.0338 7.06176 36.5804 6.75294L37.9959 1.72531C38.1007 1.35318 37.884 0.966573 37.5118 0.861799C37.1397 0.757024 36.7531 0.973759 36.6483 1.34589L35.197 6.50051C33.983 6.31505 32.7853 6.22611 31.6104 6.22013L31.5601 0.693637ZM13.2359 18.8802L13.5084 18.6373L13.2359 18.3945C16.1929 15.0762 21.4839 11.0848 27.7803 9.93131C34.1406 8.76613 41.4249 10.5183 48.2171 18.5185L48.0772 18.6373L48.2171 18.7561C41.4249 26.7563 34.1406 28.5085 27.7803 27.3433C21.4839 26.1899 16.1929 22.1985 13.2359 18.8802ZM28.0326 25.9663C22.5536 24.9625 17.8251 21.6384 14.921 18.6373C17.8251 15.6362 22.5536 12.3121 28.0326 11.3084C33.6647 10.2766 40.1831 11.6768 46.4611 18.6373C40.1831 25.5979 33.6647 26.998 28.0326 25.9663ZM36.0336 18.8044C36.0336 21.6923 33.6925 24.0334 30.8046 24.0334C27.9167 24.0334 25.5755 21.6923 25.5755 18.8044C25.5755 15.9165 27.9167 13.5754 30.8046 13.5754C33.6925 13.5754 36.0336 15.9165 36.0336 18.8044ZM37.4336 18.8044C37.4336 22.4655 34.4657 25.4334 30.8046 25.4334C27.1435 25.4334 24.1755 22.4655 24.1755 18.8044C24.1755 15.1433 27.1435 12.1754 30.8046 12.1754C34.4657 12.1754 37.4336 15.1433 37.4336 18.8044ZM30.6932 20.9139C31.8582 20.9139 32.8026 19.9695 32.8026 18.8044C32.8026 17.6394 31.8582 16.695 30.6932 16.695C29.5281 16.695 28.5837 17.6394 28.5837 18.8044C28.5837 19.9695 29.5281 20.9139 30.6932 20.9139ZM30.6932 22.3139C32.6314 22.3139 34.2026 20.7427 34.2026 18.8044C34.2026 16.8662 32.6314 15.2949 30.6932 15.2949C28.7549 15.2949 27.1837 16.8662 27.1837 18.8044C27.1837 20.7427 28.7549 22.3139 30.6932 22.3139Z" fill="#FF9533"/>
<path d="M5.97 34.36C6.37 34.4867 6.68333 34.7 6.91 35C7.13667 35.2933 7.25 35.6567 7.25 36.09C7.25 36.7033 7.01 37.1767 6.53 37.51C6.05667 37.8367 5.36333 38 4.45 38H0.83V31H4.25C5.10333 31 5.75667 31.1633 6.21 31.49C6.67 31.8167 6.9 32.26 6.9 32.82C6.9 33.16 6.81667 33.4633 6.65 33.73C6.49 33.9967 6.26333 34.2067 5.97 34.36ZM2.44 32.22V33.87H4.05C4.45 33.87 4.75333 33.8 4.96 33.66C5.16667 33.52 5.27 33.3133 5.27 33.04C5.27 32.7667 5.16667 32.5633 4.96 32.43C4.75333 32.29 4.45 32.22 4.05 32.22H2.44ZM4.33 36.78C4.75667 36.78 5.07667 36.71 5.29 36.57C5.51 36.43 5.62 36.2133 5.62 35.92C5.62 35.34 5.19 35.05 4.33 35.05H2.44V36.78H4.33ZM8.36648 32.62H9.92648V38H8.36648V32.62ZM9.14648 31.87C8.85982 31.87 8.62648 31.7867 8.44648 31.62C8.26648 31.4533 8.17648 31.2467 8.17648 31C8.17648 30.7533 8.26648 30.5467 8.44648 30.38C8.62648 30.2133 8.85982 30.13 9.14648 30.13C9.43315 30.13 9.66648 30.21 9.84648 30.37C10.0265 30.53 10.1165 30.73 10.1165 30.97C10.1165 31.23 10.0265 31.4467 9.84648 31.62C9.66648 31.7867 9.43315 31.87 9.14648 31.87ZM16.9243 32.62V37.1C16.9243 38.0867 16.6676 38.82 16.1543 39.3C15.641 39.78 14.891 40.02 13.9043 40.02C13.3843 40.02 12.891 39.9567 12.4243 39.83C11.9576 39.7033 11.571 39.52 11.2643 39.28L11.8843 38.16C12.111 38.3467 12.3976 38.4933 12.7443 38.6C13.091 38.7133 13.4376 38.77 13.7843 38.77C14.3243 38.77 14.721 38.6467 14.9743 38.4C15.2343 38.16 15.3643 37.7933 15.3643 37.3V37.07C14.9576 37.5167 14.391 37.74 13.6643 37.74C13.171 37.74 12.7176 37.6333 12.3043 37.42C11.8976 37.2 11.5743 36.8933 11.3343 36.5C11.0943 36.1067 10.9743 35.6533 10.9743 35.14C10.9743 34.6267 11.0943 34.1733 11.3343 33.78C11.5743 33.3867 11.8976 33.0833 12.3043 32.87C12.7176 32.65 13.171 32.54 13.6643 32.54C14.4443 32.54 15.0376 32.7967 15.4443 33.31V32.62H16.9243ZM13.9743 36.46C14.3876 36.46 14.7243 36.34 14.9843 36.1C15.251 35.8533 15.3843 35.5333 15.3843 35.14C15.3843 34.7467 15.251 34.43 14.9843 34.19C14.7243 33.9433 14.3876 33.82 13.9743 33.82C13.561 33.82 13.221 33.9433 12.9543 34.19C12.6876 34.43 12.5543 34.7467 12.5543 35.14C12.5543 35.5333 12.6876 35.8533 12.9543 36.1C13.221 36.34 13.561 36.46 13.9743 36.46ZM26.4583 34.36C26.8583 34.4867 27.1716 34.7 27.3983 35C27.6249 35.2933 27.7383 35.6567 27.7383 36.09C27.7383 36.7033 27.4983 37.1767 27.0183 37.51C26.5449 37.8367 25.8516 38 24.9383 38H21.3183V31H24.7383C25.5916 31 26.2449 31.1633 26.6983 31.49C27.1583 31.8167 27.3883 32.26 27.3883 32.82C27.3883 33.16 27.3049 33.4633 27.1383 33.73C26.9783 33.9967 26.7516 34.2067 26.4583 34.36ZM22.9283 32.22V33.87H24.5383C24.9383 33.87 25.2416 33.8 25.4483 33.66C25.6549 33.52 25.7583 33.3133 25.7583 33.04C25.7583 32.7667 25.6549 32.5633 25.4483 32.43C25.2416 32.29 24.9383 32.22 24.5383 32.22H22.9283ZM24.8183 36.78C25.2449 36.78 25.5649 36.71 25.7783 36.57C25.9983 36.43 26.1083 36.2133 26.1083 35.92C26.1083 35.34 25.6783 35.05 24.8183 35.05H22.9283V36.78H24.8183ZM30.3448 33.33C30.5314 33.07 30.7814 32.8733 31.0948 32.74C31.4148 32.6067 31.7814 32.54 32.1948 32.54V33.98C32.0214 33.9667 31.9048 33.96 31.8448 33.96C31.3981 33.96 31.0481 34.0867 30.7948 34.34C30.5414 34.5867 30.4148 34.96 30.4148 35.46V38H28.8548V32.62H30.3448V33.33ZM35.6335 38.08C35.0668 38.08 34.5568 37.9633 34.1035 37.73C33.6568 37.49 33.3068 37.16 33.0535 36.74C32.8002 36.32 32.6735 35.8433 32.6735 35.31C32.6735 34.7767 32.8002 34.3 33.0535 33.88C33.3068 33.46 33.6568 33.1333 34.1035 32.9C34.5568 32.66 35.0668 32.54 35.6335 32.54C36.2002 32.54 36.7068 32.66 37.1535 32.9C37.6002 33.1333 37.9502 33.46 38.2035 33.88C38.4568 34.3 38.5835 34.7767 38.5835 35.31C38.5835 35.8433 38.4568 36.32 38.2035 36.74C37.9502 37.16 37.6002 37.49 37.1535 37.73C36.7068 37.9633 36.2002 38.08 35.6335 38.08ZM35.6335 36.8C36.0335 36.8 36.3602 36.6667 36.6135 36.4C36.8735 36.1267 37.0035 35.7633 37.0035 35.31C37.0035 34.8567 36.8735 34.4967 36.6135 34.23C36.3602 33.9567 36.0335 33.82 35.6335 33.82C35.2335 33.82 34.9035 33.9567 34.6435 34.23C34.3835 34.4967 34.2535 34.8567 34.2535 35.31C34.2535 35.7633 34.3835 36.1267 34.6435 36.4C34.9035 36.6667 35.2335 36.8 35.6335 36.8ZM43.0963 37.74C42.9429 37.8533 42.7529 37.94 42.5263 38C42.3063 38.0533 42.0729 38.08 41.8263 38.08C41.1863 38.08 40.6896 37.9167 40.3363 37.59C39.9896 37.2633 39.8163 36.7833 39.8163 36.15V33.94H38.9863V32.74H39.8163V31.43H41.3763V32.74H42.7163V33.94H41.3763V36.13C41.3763 36.3567 41.4329 36.5333 41.5462 36.66C41.6663 36.78 41.8329 36.84 42.0463 36.84C42.2929 36.84 42.5029 36.7733 42.6763 36.64L43.0963 37.74ZM47.242 32.54C47.9086 32.54 48.4453 32.74 48.852 33.14C49.2653 33.54 49.472 34.1333 49.472 34.92V38H47.912V35.16C47.912 34.7333 47.8186 34.4167 47.632 34.21C47.4453 33.9967 47.1753 33.89 46.822 33.89C46.4286 33.89 46.1153 34.0133 45.882 34.26C45.6486 34.5 45.532 34.86 45.532 35.34V38H43.972V30.58H45.532V33.18C45.7386 32.9733 45.9886 32.8167 46.282 32.71C46.5753 32.5967 46.8953 32.54 47.242 32.54ZM56.2146 35.33C56.2146 35.35 56.2046 35.49 56.1846 35.75H52.1146C52.1879 36.0833 52.3613 36.3467 52.6346 36.54C52.9079 36.7333 53.2479 36.83 53.6546 36.83C53.9346 36.83 54.1813 36.79 54.3946 36.71C54.6146 36.6233 54.8179 36.49 55.0046 36.31L55.8346 37.21C55.3279 37.79 54.5879 38.08 53.6146 38.08C53.0079 38.08 52.4713 37.9633 52.0046 37.73C51.5379 37.49 51.1779 37.16 50.9246 36.74C50.6713 36.32 50.5446 35.8433 50.5446 35.31C50.5446 34.7833 50.6679 34.31 50.9146 33.89C51.1679 33.4633 51.5113 33.1333 51.9446 32.9C52.3846 32.66 52.8746 32.54 53.4146 32.54C53.9413 32.54 54.4179 32.6533 54.8446 32.88C55.2713 33.1067 55.6046 33.4333 55.8446 33.86C56.0913 34.28 56.2146 34.77 56.2146 35.33ZM53.4246 33.72C53.0713 33.72 52.7746 33.82 52.5346 34.02C52.2946 34.22 52.1479 34.4933 52.0946 34.84H54.7446C54.6913 34.5 54.5446 34.23 54.3046 34.03C54.0646 33.8233 53.7713 33.72 53.4246 33.72ZM58.7432 33.33C58.9299 33.07 59.1799 32.8733 59.4932 32.74C59.8132 32.6067 60.1799 32.54 60.5932 32.54V33.98C60.4199 33.9667 60.3032 33.96 60.2432 33.96C59.7965 33.96 59.4465 34.0867 59.1932 34.34C58.9399 34.5867 58.8132 34.96 58.8132 35.46V38H57.2532V32.62H58.7432V33.33Z" fill="#FF9533"/>
</svg>

<svg width="61" height="41" fill="none" xmlns="http://www.w3.org/2000/svg"><path fill-rule="evenodd" clip-rule="evenodd" d="M31.56.694a.7.7 0 1 0-1.4.012l.05 5.546a26.13 26.13 0 0 0-3.71.455L25.07 1.732a.7.7 0 1 0-1.346.387l1.405 4.89a29.63 29.63 0 0 0-4.274 1.416l-2.742-3.79a.7.7 0 0 0-1.135.82l2.57 3.55a31.193 31.193 0 0 0-3.904 2.196L13.18 8.88a.7.7 0 0 0-.96 1.019l2.252 2.12a24.82 24.82 0 0 0-2.078 1.701.7.7 0 0 0 .947 1.031c2.887-2.653 8.126-5.868 14.396-6.84 6.236-.967 13.52.277 20.595 6.57a.7.7 0 0 0 .93-1.047 33.805 33.805 0 0 0-2.207-1.805l2.212-2a.7.7 0 0 0-.939-1.038l-2.44 2.206a28.292 28.292 0 0 0-3.602-2.084l2.409-3.495a.7.7 0 1 0-1.153-.794l-2.554 3.706a24.876 24.876 0 0 0-4.408-1.378l1.416-5.028a.7.7 0 1 0-1.348-.38l-1.451 5.156a24.558 24.558 0 0 0-3.587-.28L31.56.693ZM13.236 18.88l.272-.243-.272-.242c2.957-3.319 8.248-7.31 14.544-8.464 6.36-1.165 13.645.587 20.437 8.588l-.14.118.14.12c-6.792 8-14.076 9.752-20.437 8.586-6.296-1.153-11.587-5.145-14.544-8.463Zm14.797 7.086c-5.48-1.004-10.208-4.328-13.112-7.329 2.904-3 7.633-6.325 13.112-7.329 5.632-1.031 12.15.369 18.428 7.33-6.278 6.96-12.796 8.36-18.428 7.328Zm8-7.162a5.229 5.229 0 1 1-10.457 0 5.229 5.229 0 0 1 10.458 0Zm1.4 0a6.629 6.629 0 1 1-13.257 0 6.629 6.629 0 0 1 13.258 0Zm-6.74 2.11a2.11 2.11 0 1 0 0-4.219 2.11 2.11 0 0 0 0 4.219Zm0 1.4a3.51 3.51 0 1 0 0-7.019 3.51 3.51 0 0 0 0 7.019Z" fill="#FF9533"/><path d="M5.97 34.36c.4.127.713.34.94.64.227.293.34.657.34 1.09 0 .613-.24 1.087-.72 1.42-.473.327-1.167.49-2.08.49H.83v-7h3.42c.853 0 1.507.163 1.96.49.46.327.69.77.69 1.33 0 .34-.083.643-.25.91a1.68 1.68 0 0 1-.68.63Zm-3.53-2.14v1.65h1.61c.4 0 .703-.07.91-.21.207-.14.31-.347.31-.62s-.103-.477-.31-.61c-.207-.14-.51-.21-.91-.21H2.44Zm1.89 4.56c.427 0 .747-.07.96-.21.22-.14.33-.357.33-.65 0-.58-.43-.87-1.29-.87H2.44v1.73h1.89Zm4.036-4.16h1.56V38h-1.56v-5.38Zm.78-.75c-.286 0-.52-.083-.7-.25a.81.81 0 0 1-.27-.62.81.81 0 0 1 .27-.62c.18-.167.414-.25.7-.25.287 0 .52.08.7.24.18.16.27.36.27.6 0 .26-.09.477-.27.65-.18.167-.413.25-.7.25Zm7.778.75v4.48c0 .987-.256 1.72-.77 2.2-.513.48-1.263.72-2.25.72-.52 0-1.013-.063-1.48-.19-.466-.127-.853-.31-1.16-.55l.62-1.12c.227.187.514.333.86.44.347.113.694.17 1.04.17.54 0 .937-.123 1.19-.37.26-.24.39-.607.39-1.1v-.23c-.406.447-.973.67-1.7.67-.493 0-.946-.107-1.36-.32a2.523 2.523 0 0 1-.97-.92 2.558 2.558 0 0 1-.36-1.36c0-.513.12-.967.36-1.36a2.45 2.45 0 0 1 .97-.91c.414-.22.867-.33 1.36-.33.78 0 1.374.257 1.78.77v-.69h1.48Zm-2.95 3.84c.414 0 .75-.12 1.01-.36.267-.247.4-.567.4-.96s-.133-.71-.4-.95c-.26-.247-.596-.37-1.01-.37-.413 0-.753.123-1.02.37-.266.24-.4.557-.4.95 0 .393.134.713.4.96.267.24.607.36 1.02.36Zm12.484-2.1c.4.127.714.34.94.64.227.293.34.657.34 1.09 0 .613-.24 1.087-.72 1.42-.473.327-1.166.49-2.08.49h-3.62v-7h3.42c.854 0 1.507.163 1.96.49.46.327.69.77.69 1.33 0 .34-.083.643-.25.91a1.68 1.68 0 0 1-.68.63Zm-3.53-2.14v1.65h1.61c.4 0 .704-.07.91-.21.207-.14.31-.347.31-.62s-.103-.477-.31-.61c-.206-.14-.51-.21-.91-.21h-1.61Zm1.89 4.56c.427 0 .747-.07.96-.21.22-.14.33-.357.33-.65 0-.58-.43-.87-1.29-.87h-1.89v1.73h1.89Zm5.527-3.45c.186-.26.436-.457.75-.59.32-.133.686-.2 1.1-.2v1.44a5.66 5.66 0 0 0-.35-.02c-.447 0-.797.127-1.05.38-.254.247-.38.62-.38 1.12V38h-1.56v-5.38h1.49v.71Zm5.288 4.75a3.294 3.294 0 0 1-1.53-.35 2.682 2.682 0 0 1-1.05-.99 2.714 2.714 0 0 1-.38-1.43c0-.533.127-1.01.38-1.43.254-.42.604-.747 1.05-.98.454-.24.964-.36 1.53-.36.567 0 1.074.12 1.52.36.447.233.797.56 1.05.98.254.42.38.897.38 1.43 0 .533-.126 1.01-.38 1.43-.253.42-.603.75-1.05.99-.446.233-.953.35-1.52.35Zm0-1.28c.4 0 .727-.133.98-.4.26-.273.39-.637.39-1.09 0-.453-.13-.813-.39-1.08-.253-.273-.58-.41-.98-.41s-.73.137-.99.41c-.26.267-.39.627-.39 1.08 0 .453.13.817.39 1.09.26.267.59.4.99.4Zm7.463.94c-.153.113-.343.2-.57.26-.22.053-.453.08-.7.08-.64 0-1.136-.163-1.49-.49-.346-.327-.52-.807-.52-1.44v-2.21h-.83v-1.2h.83v-1.31h1.56v1.31h1.34v1.2h-1.34v2.19c0 .227.057.403.17.53.12.12.287.18.5.18.247 0 .457-.067.63-.2l.42 1.1Zm4.146-5.2c.667 0 1.203.2 1.61.6.413.4.62.993.62 1.78V38h-1.56v-2.84c0-.427-.093-.743-.28-.95-.187-.213-.457-.32-.81-.32-.393 0-.707.123-.94.37-.233.24-.35.6-.35 1.08V38h-1.56v-7.42h1.56v2.6a2.02 2.02 0 0 1 .75-.47c.293-.113.613-.17.96-.17Zm8.973 2.79c0 .02-.01.16-.03.42h-4.07c.073.333.246.597.52.79.273.193.613.29 1.02.29.28 0 .526-.04.74-.12.22-.087.423-.22.61-.4l.83.9c-.507.58-1.247.87-2.22.87-.607 0-1.144-.117-1.61-.35a2.635 2.635 0 0 1-1.08-.99 2.714 2.714 0 0 1-.38-1.43c0-.527.123-1 .37-1.42a2.625 2.625 0 0 1 1.03-.99c.44-.24.93-.36 1.47-.36a3 3 0 0 1 1.43.34c.426.227.76.553 1 .98.246.42.37.91.37 1.47Zm-2.79-1.61c-.354 0-.65.1-.89.3-.24.2-.387.473-.44.82h2.65a1.27 1.27 0 0 0-.44-.81 1.302 1.302 0 0 0-.88-.31Zm5.318-.39a1.74 1.74 0 0 1 .75-.59c.32-.133.687-.2 1.1-.2v1.44a5.656 5.656 0 0 0-.35-.02c-.447 0-.797.127-1.05.38-.253.247-.38.62-.38 1.12V38h-1.56v-5.38h1.49v.71Z" fill="#FF9533"/></svg>
